X: 1
T: Jack's Yet Alive
R: reel
Z: 2008 John Chambers <jc@trillian.mit.edu>
M: C|
L: 1/8
K: G
GE \
| DEGB A2Ac | (3Bcd BG AGEG | DEGB AFAc | BGAF DGGE |
| DEGB A2Ac | (3Bcd BG AGEG | DEGB AFAc | BGAF G2 :|
|: Bd \
| g2ge f2fd | efge agfd | g2ge f2fd | efaf d2ef |
| g3e f3d | edef edBe | g2fg e2dc | BGAF G2 :|
